X: 1
T: Gordon's Favourite
R: reel
S: Boys of the Lough
Z: John Chambers <jc:trillian.mit.edu>
M: C|
L: 1/8
K: G
D2 \
|: "G"G3A BGBd | "C"edef "G"gdBd | "(C)"gfge "G"dBGB | "A7"ABAG "D7"E2D2 |
|  "G"G3A BGBd | "C"edef "G"g2ag | "D"fafd "A7"egfe | "D"d2f2 d2z2 :|
|: "C"e2ce gece | "G"d2Bd gdBd | "D7"c2Ac "G"B2GB | "A7"ABAG "D7"E2D2 |
|  "G"G3A BGBd | "C"edef "(G)"gfge | "G"dBGB "D7"AcBA | "G"G2B2 G2z2 :|
